X: 32727
T: Poll Ha'Penny
R: hornpipe
M: 4/4
K: Amixolydian
|:ed|cA (3AAA A2 Bc|dcAF G2 cd|edcA dcAG|A2 AB A2 cd|
(3efg ec efec|d2 cd ef (3gfe|aged cAdc|A2 (3AAA A2:|
|:ef|g3a gfed|eg {a}(3gfg gfed|ea{b}ag abag|ea{b}ag a2 {b}ag|
(3fgf fd (3efe ec|d2 cd ef (3gfe|aged cAdc|A2 (3AAA A2:|

